X:1
T: The Laird o' Drumblair
C:
R:Strathspey
Q: 128
K:A
M:4/4
L:1/16
|:A4 c3A E3A c3A|a4 g3a f3a e3c|((3d2e2f2) ((3e2f2g2) ((3a2e2d2) ((3c2B2A2) |((3B2c2d2) ((3c2B2A2) ((3G2F2E2) ((3d2c2B2) |
A4 c3A E3A c3A|a4 g3a f3a e3c|((3d2e2f2) ((3e2f2g2) ((3a2e2d2) ((3c2B2A2) |((3G2F2E2) ((3d2c2B2) A4-A2g2|
a4 e3a c3a A3a|cBA2 e3g a3A ca3|b4 f3b d3b B3b|dcB2 f3B b3B db3|
a4 e3a c3a A3a|cBA2 e3g a3e c3A|((3d2e2f2) ((3e2f2g2) ((3a2e2d2) ((3c2B2A2) |1((3G2F2E2) ((3d2c2B2) A4-A2E2:|2((3G2F2E2) ((3D2C2B,2) A,8||
